X:1
T:I Shall See Him By and By (Graeff)
T:I Shall See Him By and By (Graeff)
T:Joseph Lincoln Hall
T:Frank Ellsworth Graeff, 1900
T:Public Domain Courtesy of the Cyber Hymnal™
T:Public Domain Courtesy of the Cyber Hymnal™
C:Joseph Lincoln Hall
Z:Public Domain
Z:Courtesy of the Cyber Hymnal™
%%score 1 ( 2 3 )
L:1/8
Q:1/4=102
M:4/4
K:Ab
V:1 treble 
V:2 bass 
V:3 bass 
V:1
 [CE][CE] | [CA]2 [DA]2 [CA]2 [DG][CA] | [EB]2 [=DB]2 [_DB]2 [DE][DE] | %3
w: 1.~When my|heart is sad with life’s|cares and toils, I will|
w: 2.~When the|path is rough, and the|way is hard, And no|
w: 3.~When the|day grows dark, and the|clouds o’er- hang, And they|
w: 4.~Then my|heart be brave, and my|soul re- joice, For His|
 [EB][EB][EB][EB] [EB][Ed][Ec][EB] | [Ec]6 [Ac][Ad] | [Ae][Ae][Ae][Ae] [Ac]2 [GB][_Gc] | %6
w: hush my trou- bled spir- it’s anx- ious|cry; For the|day is com- ing fast, When my|
w: rest- ing for my wear- y feet is|nigh; I will|brave- ly press a- long, Sing- ing|
w: close out all the sun- shine from the|sky; Tho’ in|dark- ness I a- bide, He is|
w: prom- ise stand- eth sure— on it re-|ly; And for|all the care and pain There shall|
 [Fd][Fd][Fd][Fd] [DF]2 [DF][DF] | [CE][CE][CE][Ec] [Ec][DB][CA][DG] | [CA]6 || %9
w: cares shall all be past, I shall|see Him! I shall see Him by and|by!|
w: still my hope- ful song, I shall|see Him! I shall see Him by and|by!|
w: still my faith- ful guide, I shall|see Him! I shall see Him by and|by!|
w: be e- ter- nal gain, When I|see Him! When I see Him by and|by!|
"^Refrain" [Ac]>[Ad] | [Ae]2 [Ae]4 [Af]>[Ae] | [Ac]2 [Ac]4 [Ac]>[Gd] | [Ae]3 [Ae] [Gd]2 [Ac]2 | %13
w: ||||
w: I shall|see Him! My Re-|deem- er! O my|heart, be brave, be|
w: ||||
w: ||||
 [GB]6 [Ac]>[Gd] | [Ae]2 [Ae]4 [Ac]>[_Ge] | [Fe]2 [Fd]4 [FA]>[_FB] | [Ec]3 [CA] [Ec]2 [DB]2 | %17
w: ||||
w: strong! I shall|see Him, and I’ll|praise Him With an|ev- er- last- ing|
w: ||||
w: ||||
 [CA]6 |] %18
w: |
w: song.|
w: |
w: |
V:2
 [A,,A,][A,,A,] | [A,,E,]2 [A,,F,]2 [A,,E,]2 [B,,E,][A,,E,] | %2
w: ~ ~|~ ~ ~ ~ ~|
 [E,G,]2 [F,A,]2 [G,B,]2 [E,G,][E,G,] | [E,G,][E,G,][E,G,][E,G,] [E,G,][E,B,][E,A,][E,G,] | %4
w: ~ ~ ~ ~ ~|~ ~ ~ ~ ~ ~ ~ ~|
 [A,,A,]6 [A,E][A,D] | [A,C][A,C][A,C][A,C] [A,E]2 [A,E][A,E] | %6
w: ~ ~ ~|~ ~ ~ ~ ~ ~ ~|
 [D,D][D,D][D,D][D,D] [D,A,]2 [D,A,][D,A,] | [E,A,][E,A,][E,A,][E,A,] [E,G,][E,G,][E,A,][E,B,] | %8
w: ~ ~ ~ ~ ~ ~ ~|~ ~ ~ ~ ~ ~ ~ ~|
 [A,,A,]6 || [A,E]>[A,D] | [A,C]2 [A,C]4 [A,D]>[A,C] | [A,E]2 [A,E]4 [A,E]>[B,E] | %12
w: ~|~ ~|~ ~ ~ ~|~ ~ ~ ~|
 [CE]3 [CE] [B,E]2 [A,E]2 | E6 [CE]>[B,E] | [A,C]2 [A,C]4 [A,E]>[A,C] | [D,D]2 [D,D]4 [D,D]>[D,D] | %16
w: ~ ~ ~ ~|~ I shall|see Him! * *||
 [E,A,]3 [E,A,] [E,A,]2 [E,G,]2 | [A,,A,]6 |] %18
w: ||
V:3
 x2 | x8 | x8 | x8 | x8 | x8 | x8 | x8 | x6 || x2 | x8 | x8 | x8 | E,2 G,B, ED x2 | x8 | x8 | x8 | %17
 x6 |] %18

